X: 27425
T: Moll Roe
R: slip jig
M: 9/8
K: Gmajor
DGG GAG FGA|B3 GAB c3|DGG GAG FGA|BAB cAF G2 A|
DGG GAG FGA|BAB GAB c3|DGG GAG FGA|B3 cAF G2 A||
ded cAG FGA|ded cAB c3|ded cAG FGA|B3 cAF G2 A|
ded cAG FGA|ddd cAB c3|ded cAG FGA|BAB cAF G2 A||

